src/assets/duotone/Forward10Seconds.svg

<?xml version="1.0" encoding="UTF-8"?>
<svg width="24" height="24" viewBox="0 0 24 24" xmlns="http://www.w3.org/2000/svg">
 <path d="m19.69 7.3499c-0.25-0.33-0.72-0.39996-1.05-0.14996s-0.4 0.71998-0.15 1.05c1.08 1.44 1.65 3.12 1.65 4.86 0 4.49-3.65 8.14-8.14 8.14-4.49 0-8.14-3.65-8.14-8.14 0-4.49 3.65-8.14 8.14-8.14 0.58 0 1.17 0.07004 1.81 0.22004 0.03 0.01 0.06 0 0.1 0 0.02 0 0.05 0.02002 0.07 0.02002 0.03 0 0.05-0.01001 0.08-0.01001 0.04 0 0.07-0.01002 0.1-0.02002 0.05-0.01 0.1-0.03 0.15-0.06 0.03-0.02 0.07-0.02999 0.1-0.04999 0.01-0.01 0.03-0.01002 0.04-0.02002 0.03-0.02 0.04-0.05001 0.06-0.07001 0.04-0.04 0.07-0.06999 0.1-0.11999 0.03-0.04 0.04-0.09001 0.06-0.13001 0.01-0.03 0.03-0.05996 0.04-0.08996v-0.04999c0.01-0.05 0.01-0.10002 0-0.15002 0-0.05 0-0.09002-0.01-0.14002-0.01-0.04-0.03-0.08-0.05-0.13s-0.04-0.09996-0.07-0.13996c-0.01-0.01-0.01-0.03004-0.02-0.04004l-1.98-2.47c-0.26-0.32-0.73-0.36999-1.05-0.11999-0.32 0.26-0.37 0.72999-0.12 1.05l0.82 1.02c-0.08 0-0.16-0.00994-0.24-0.00994-5.31 0-9.64 4.32-9.64 9.64s4.32 9.64 9.64 9.64c5.32 0 9.64-4.32 9.64-9.64 0.01-2.06-0.67-4.05-1.94-5.75z" opacity=".4"/>
 <path d="m9.54 16.67c-0.41 0-0.75-0.34-0.75-0.75v-3.39l-0.19001 0.21c-0.28 0.31-0.74999 0.33-1.06 0.06-0.31-0.28-0.33-0.75-0.06-1.06l1.5-1.67c0.21-0.23002 0.53999-0.31003 0.82999-0.20003 0.28997 0.11 0.47997 0.39003 0.47997 0.70003v5.35c0 0.42-0.32996 0.75-0.74996 0.75z"/>
 <path d="m14 16.67c-1.52 0-2.75-1.23-2.75-2.75v-1.3499c0-1.52 1.23-2.75 2.75-2.75s2.75 1.23 2.75 2.75v1.3499c0 1.52-1.23 2.75-2.75 2.75zm0-5.3399c-0.69 0-1.25 0.56-1.25 1.25v1.35c0 0.69 0.56 1.25 1.25 1.25s1.25-0.56 1.25-1.25v-1.35c0-0.69-0.56-1.25-1.25-1.25z"/>
</svg>

<svg width="24" height="24" viewBox="0 0 24 24"  xmlns="http://www.w3.org/2000/svg">
<path opacity="0.4" d="M19.6901 7.3499C19.4401 7.0199 18.9701 6.94994 18.6401 7.19994C18.3101 7.44994 18.2401 7.91992 18.4901 8.24992C19.5701 9.68992 20.1401 11.3699 20.1401 13.1099C20.1401 17.5999 16.4901 21.2499 12.0001 21.2499C7.51009 21.2499 3.86008 17.5999 3.86008 13.1099C3.86008 8.61991 7.51009 4.96989 12.0001 4.96989C12.5801 4.96989 13.1701 5.03993 13.8101 5.18993C13.8401 5.19993 13.8701 5.18993 13.9101 5.18993C13.9301 5.18993 13.9601 5.20995 13.9801 5.20995C14.0101 5.20995 14.0301 5.19994 14.0601 5.19994C14.1001 5.19994 14.1301 5.18992 14.1601 5.17992C14.2101 5.16992 14.2601 5.14992 14.3101 5.11992C14.3401 5.09992 14.3801 5.08993 14.4101 5.06993C14.4201 5.05993 14.4401 5.05991 14.4501 5.04991C14.4801 5.02991 14.4901 4.9999 14.5101 4.9799C14.5501 4.9399 14.5801 4.90991 14.6101 4.85991C14.6401 4.81991 14.6501 4.7699 14.6701 4.7299C14.6801 4.6999 14.7001 4.66994 14.7101 4.63994C14.7101 4.61994 14.7101 4.60995 14.7101 4.58995C14.7201 4.53995 14.7201 4.48993 14.7101 4.43993C14.7101 4.38993 14.7101 4.34991 14.7001 4.29991C14.6901 4.25991 14.6701 4.21991 14.6501 4.16991C14.6301 4.11991 14.6101 4.06995 14.5801 4.02995C14.5701 4.01995 14.5701 3.99991 14.5601 3.98991L12.5801 1.51994C12.3201 1.19994 11.8501 1.14995 11.5301 1.39995C11.2101 1.65995 11.1601 2.12994 11.4101 2.44994L12.2301 3.46989C12.1501 3.46989 12.0701 3.45995 11.9901 3.45995C6.68008 3.45995 2.3501 7.7799 2.3501 13.0999C2.3501 18.4199 6.67008 22.7399 11.9901 22.7399C17.3101 22.7399 21.6301 18.4199 21.6301 13.0999C21.6401 11.0399 20.9601 9.0499 19.6901 7.3499Z" />
<path d="M9.54004 16.6701C9.13004 16.6701 8.79004 16.3301 8.79004 15.9201V12.5301L8.60003 12.7401C8.32003 13.0501 7.85004 13.0701 7.54004 12.8001C7.23004 12.5201 7.21004 12.0501 7.48004 11.7401L8.98004 10.0701C9.19004 9.84008 9.52003 9.76007 9.81003 9.87007C10.1 9.98007 10.29 10.2601 10.29 10.5701V15.9201C10.29 16.3401 9.96004 16.6701 9.54004 16.6701Z" />
<path d="M14 16.67C12.48 16.67 11.25 15.44 11.25 13.92V12.5701C11.25 11.0501 12.48 9.82007 14 9.82007C15.52 9.82007 16.75 11.0501 16.75 12.5701V13.92C16.75 15.44 15.52 16.67 14 16.67ZM14 11.3301C13.31 11.3301 12.75 11.8901 12.75 12.5801V13.9301C12.75 14.6201 13.31 15.1801 14 15.1801C14.69 15.1801 15.25 14.6201 15.25 13.9301V12.5801C15.25 11.8901 14.69 11.3301 14 11.3301Z" />
</svg>
